X:0579
M:6/8
L:1/8
Q:3/8=120
K:G
d2g d2B|A2G A2B|c2B e2d|dcB B2A|\
d2g d2B|A2G A2B|c2B e2d|cBA G3::
d2d c2B|B2B A2G|F2G A2B|c2B B2A|\
d2d c2B|B2B A2G|F2G A2B|cAF G3::
d2e d2g|e2f e2g|A2B c2d|c2B A2G|\
d2e d2g|e2f e2g|d2g B2g|A2B G3:|

